X:1
T:The Book My Mother Read
T:The Book My Mother Read
T:Charles Hutchinson Gabriel
T:Edwin Smith Ufford, 1916
T:Public Domain Courtesy of the Cyber Hymnal™
T:Public Domain Courtesy of the Cyber Hymnal™
C:Charles Hutchinson Gabriel
Z:Public Domain
Z:Courtesy of the Cyber Hymnal™
%%score ( 1 2 ) ( 3 4 )
L:1/8
Q:1/4=105
M:4/4
K:Db
V:1 treble 
V:2 treble 
V:3 bass 
V:4 bass 
V:1
 DF | A2 A2 A2 A2 | [FA]6 FA | d2 d2 d2 d2 | [Fd]6 dc | B2 d2 A2 [FB]2 | [FA]4 G2 [CA]2 | %7
w: 1.~Like a|com- pass on the|sea, like a|star on a- zure|deep, Is the|Bi- ble un- to|me, for my|
w: 2.~Like a|lamp in dark- est|night, shin- ing|on my path- way|lone, Now and|then up- on my|sight, shows a|
w: 3.~Like a|guest from realms a-|bove, sooth- ing|all one’s pain and|pang, How it|thrills with Je- sus’|love, like some|
 F3 F E2 D2 | A6 ([DF]2 [EG]2) DF | A2 A2 A2 A2 | [FA]6 FA | d2 d2 d2 d2 | [Fd]6 [Fd][Ge] | %13
w: course it safe- ly|keeps; Tells * me how|* I strayed and|fell, how in|sin I lay as|dead, But I|
w: vi- sion of my|home; So * this book|* my spir- it|cheers, when all|o- ther hopes are|fled, Balm and|
w: song the an- gels|sang; Tells * me how|* my Sav- ior|came, how for|me His blood was|shed; I will|
 [Af]3 [Ge] [Fd]2 [GB]2 | [FA]4 [GB]2 [Dd]2 | F3 F E E3 | D6 z2 ||"^Refrain" [GB]2 [GB]2 B4 | %18
w: live its power to|tell, bless- èd|book my mo- ther|read.||
w: com- fort for my|fears, is the|book my mo- ther|read.|Pre- cious book!|
w: read it o’er a-|gain— Bless- èd|book my mo- ther|read.||
 A2 [DA]2 [DA]4 | [D=G]3 [EG] [EA]2 [EB]2 | [Ec]2 [Ec]2 c4 | [Fd]2 [Fd]2 [Fd]3 [Ge] | %22
w: ||||
w: O won- drous|book! Who can tell|its power di-|vine? Bear- ing news|
w: ||||
 [Af]2 [Fd]2 [FA]4 | [GB]2 [Dd]2 [DA]3 D | [DF]2 [CE]2 D2 |] %25
w: |||
w: of grace so|free, book of books,|I claim it|
w: |||
V:2
 x2 | x8 | x8 | x8 | x8 | G4 A2 x2 | x8 | D4 x4 | [CE]2 x10 | x8 | x8 | x8 | x8 | x8 | x8 | D4 C4 | %16
 x8 || x4 G3 G | A2 x6 | x8 | x4 (A2 G2) | x8 | x8 | x7 D | x4 D2 |] %25
V:3
 z2 | D,2 [F,A,D]2 [E,A,C]2 [G,A,E]2 | (D,2 [F,A,D]2 [F,A,D]2) z2 | %3
 D,2 [F,A,D]2 [E,G,D]2 [G,B,D]2 | (D,2 [F,A,D]2 [F,A,D]2) z2 | D2 C2 [F,D]2 [=D,B,]2 | %6
 ([E,B,]2 [D,__B,]2) A,4 | A,6 [B,,=G,]2 | [A,,A,]6 z2 x4 | D,2 [F,A,D]2 [E,A,C]2 [G,A,E]2 | %10
 (D,2 [F,A,D]2 [F,A,D]2) z2 | D,2 [F,A,D]2 [E,G,D]2 [G,B,D]2 | (D,2 [F,A,D]2 [F,A,D]2) z2 | %13
 D,2 [F,A,D]2 D,2 [G,B,D]2 | (D,2 [F,A,D]2) [G,D]2 [=G,B,]2 | A,4 [A,,G,]4 | [D,F,]6 z2 || %17
 [G,D]2 [G,D]2 D4 | [F,D]2 [F,D]2 D4 | [E,B,]3 [D,B,] [C,A,]2 [B,,=G,]2 | [A,,A,]2 [G,A,]2 A,4 | %21
 [D,A,]2 [D,A,]2 [D,A,]3 [D,A,] | [D,D]2 [D,A,]2 [D,D]4 | [G,D]2 [G,B,]2 [F,D]3 [G,B,] | %24
 A,2 [A,,G,]2 [D,F,]2 |] %25
V:4
 x2 | x8 | x8 | x8 | x8 | G,4 x4 | x4 C,2 A,,2 | D,4 C,2 x2 | x12 | x8 | x8 | x8 | x8 | x8 | x8 | %15
 x8 | x8 || x4 G,3 G, | x4 (F,2 F,2) | x8 | x4 (F,2 E,2) | x8 | x8 | x8 | A,2 x4 |] %25

